X:1
T:Mazurka ifrån Suppevare
R:Mazurka
S:Efter Hanne Granberg
O:Arjeplog, Lappland
Z:ABC-transkribering av Johan Dahlberg
M:3/4
L:1/8
K:G
G3/2B/2 d3/2G/2 B3/2d/2|G2g4|G3/2B/2 d3/2G/2 B3/2d/2|c2e4|
D3/2F/2 A3/2D/2 F3/2A/2|D2d4|f3/2e/2 d3/2c/2 B3/2A/2|1 G6 .G/2:|2 G3B/2|
|:Lc2e3/2c/2e2|LB2d3/2B/2d2|D3/2D/2 F3/2D/2 F3/2A/2|LG2B3/2G/2 (3BdB|
Lc2e3/2c/2e2|LB2d3/2B/2d2|D3/2D/2 F3/2D/2 F3/2A/2|G2G4:|

